X:1
T:Let us, my Lesbia, live and love
T:John Stafford Smith (1750-1836)
T:Anonymous translation of the Latin poem by Gaius Valerius Catullus (ca. 84 BC – ca. 54 BC)
T:Let us, my Lesbia, live and love
T:A 3 part glee
T:Copyright © 
T:Copyright © 
C:John Stafford Smith (1750-1836)
Z:Anonymous translation of the Latin poem by
Z:Gaius Valerius Catullus (ca. 84 BC – ca. 54 BC)
Z:Copyright ©
%%score [ 1 2 3 ]
L:1/8
M:2/4
K:Eb
V:1 treble nm="[Counter- tenor]" snm="A."
V:2 treble-8 transpose=-12 nm="[Tenor]" snm="T."
V:3 bass nm="Bass" snm="B."
V:1
"^Moderato" (G,/>A,/G,/>A,/) B,B, | (B,E) E2 | (E>F G)F | (F2 G)B | (BG) (GE) | (EB,) B,2 | %6
w: Let * * * us, my|Les- * bia|live _ _ and|love, * nor|cast * a *|mo- * ment's|
 (B, A2) G | (G2 F2) | (AF) GE | D2 E2 | (AF) (GE) | c3 B | A2 G2 | (C F2) A | (GF) (ED) | E3 :: %16
w: * thought a-|way, *|whe- * ther a|pee- vish|world * ap- *|prove, or|what they|think, * or|what _ they _|say.|
 B, | (B,>A, G,)E | (B,>A, G,)B, | E,2 F,2 | G,3 A, | B,C DE | (F>G A)G | (G2 F2) | B2 B,B, | %25
w: The|sun _ _ that|sets _ _ shall|rise a-|gain, but|when our short lived|day _ _ is|o'er, _|one long e-|
 B,3 B, | B2 B,2 | B,3 B, | E3 E | E3 E | =A,3 B, | B,3 C | (DE) (FG) | (AG/F/ B)E | (B, G2) F | %35
w: ter- nal|night must|reign, a|last- ing|sleep to|wake no|more, a|last- * ing _|sleep _ _ _ to|wake * no|
{F} E3 ::[M:6/8]"^Vivace" BGE (E>F)G | F2 E c2 B | A2 G F2 E | (D<A)G F3 | B,2 C D2 E | %41
w: |Let us then live * and|love to- day and|kiss the fleet- ing|hours * a- way,|kiss the fleet- ing|
 (F/G/A)G{G} F3 |!p! B,2 C D2 E | (F/G/A)G (G2!f! F) | .c2 z .B2 z | .A2 z .G2 z | F2 =E F2 G | %47
w: hours _ _ a- *|kiss the fleet- ing|hours _ _ a- way, _|kiss, kiss,|kiss, kiss,|love to live and|
 A2 G A2 G | B,2 (F/4G/4A/) (G>F)E | (B,<E)D E3 |!p! F2 =E F2 G | A2 G A2 G | %52
w: live to love and|kiss the _ _ fleet- * ing|* * a- way,|love to live and|live to love and|
 B,2 (F/4G/4A/) (G>F)E | (B,<E)D !fermata!E3 :| %54
w: kiss the _ _ fleet- * ing|* * a- way,|
V:2
 (E/>F/E/>F/) GG | G2 G2 | (B2 e)d | (d2 e)g | (ge) (eB) | (BG) G2 | F2 (Be) | (e2 d2) | B2 BB | %9
w: Let * * * us, my|Les- bia|live _ and|love, * nor|cast * a *|mo- * ment's|thought a- *|way, *|whe- ther a|
 B3 B | B2 B2 | e2 z2 | z4 | z2 z c | (BA) (GF) | G3 :: G | (G>F E)B | (G>F E)G | E2 D2 | E3 F | %21
w: pee- vish|world ap-|prove,||or|what _ they _|say.|The|sun _ _ that|sets _ _ shall|rise a-|gain, but|
 GA Bc | (d>e f)e | (e2 d2) | D2 DD | E2 E2 | (BA) (AG) | G3 G | G3 G | A3 E | E3 D | D3 =A | %32
w: when our short lived|day _ _ is|o'er, _|one long e-|ter- nal|night _ must _|reign, a|last- ing|sleep to|wake no|more, a|
 (Bc) (de) | (fe/d/ e)c | (G B2) A |{A} G3 ::[M:6/8] geB B2 B | d2 e e2 e | e2 d c2 B | d2 e d3 | %40
w: last- * ing _|sleep _ _ _ to|wake * no||Let us then live and|love to- day and|kiss the fleet- ing|hours a- way,|
 G2 A F2 G | D2 E!p! B3- | B3- B3- | B2 e (e2!f! d) | z =ef z d!courtesy!_e | z cd z Be | %46
w: kiss the fleet- ing|hours a- way,|_ _|* a- way, _|a- way, a- way,|a- way, a- way,|
 c2 B c2 c | c2 c (cd)B | F2 d e2 B | (G>A)F!p! G3 | c2 B c2 c | c2 c (cd)B | F2 d e2 B | %53
w: love to live and|live to love * and|kiss the fleet- ing|hours _ a- way,|love to live and|live to love * and|kiss the fleet- ing|
 (G>A)F !fermata!G3 :| %54
w: hours _ a- way,|
V:3
 E,2 E,E, | E,2 E,2 | (G,/>A,/G,/>A,/ B,)B,, | E,3 E, | E2 E,2 | E,2 E,2 | D,2 E,2 | B,,4 | %8
w: Let us, my|Les- bia|live _ _ _ _ and|love, nor|cast a|mo- ment's|thought a-|way,|
 D,2 E,E, | (A,F,) (G,E,) | D,2 E,2 | A,,3 G, | C2 B,2 | A,2 F,2 | B,2 B,,2 | E,3 :: E, | E,3 E, | %18
w: whe- ther a|pee- * vish *|world ap-|prove, or|what they|think, or|what they|say.|The|sun that|
 E,3 E, | G,,2 B,,2 | E,2 z2 | z4 | z4 | z4 | (B,A,) A,G, | G,2 G,2 | (G,F,) (F,E,) | E,3 E, | %28
w: sets shall|rise a-|gain,||||one _ long e-|ter- nal|night _ must _|reign, a|
{E,} _D,3 D, | C,3 C, | _C,3 B,, | B,,4- | B,,4- | B,,2 (G,A,) | B,3 B,, | E,3 :: %36
w: * ing|sleep to|wake no|more,|_|* to _|wake no|more.|
[M:6/8] E,B,,E, G,2 E, | B,2 C A,2 G, | C2 B, A,2 G, | F,2 E, B,,3- | B,,3- B,,3- | B,,3-!p! B,,3 | %42
w: Let us then live and|love to- day and|kiss the fleet- ing|hours a- way,|_ _||
 G,2 A, F,2 G, | D,2 E,!f! B,,3 | .A,2 z .G,2 z | .F,2 z .E,2 z | A,2 G, A,2 G, | F,2 =E, F,2 _E, | %48
w: kiss the fleet- ing|hours a- way,|kiss, kiss,|kiss, kiss,|love to live and|live to love and|
 D,2 B,, E,2 G,, | B,,2 B,,!p! E,3 | A,2 G, A,2 G, | F,2 E, F,2 E, | D,2 B,, E,2 G,, | %53
w: kiss the fleet- ing|hours a- way,|love to live and|live to love and|kiss the fleet- ing|
 B,,2 B,, !fermata!E,3 :| %54
w: hours a- way,|

